X:1
T:Trim Your Lamps, and Be Ready
T:Trim Your Lamps, and Be Ready
T:E. F. Miller, “Shout of Victory,” 19th Century
T:Public Domain Courtesy of the Cyber Hymnal™
C:E. F. Miller, “Shout of Victory,” 19th Century
Z:Public Domain
Z:Courtesy of the Cyber Hymnal™
%%score ( 1 2 ) ( 3 4 )
L:1/8
Q:1/4=85
M:2/4
K:Ab
V:1 treble 
V:2 treble 
V:3 bass 
V:4 bass 
V:1
 [CE] | [CA]>[CA] [CA][CE] | [DF][CE] [CE][CA] | [Ec]>[Ec] [Ec][EA] | [Ac][GB] [GB][GB] | %5
w: 1.~Re-|joice, ye saints, the|time draws near, When|Christ will in the|clouds ap- pear, And|
w: 2.~The|trump- et sounds, the|thun- ders roll, The|heav- ens pass- ing|as a scroll, The|
w: 3.~Poor|sin- ners then on|earth will cry, While|light- ning flash- es|from the sky, “O|
w: 4.~Come,|all be rea- dy;|let us try To|warn the sin- ner|and to cry, “Be-|
 [Ac][Ae] [Ae][Ac] [Ae]3 A | [Ac]>[Ac] [GB][EG] | [EA]2 x2 ||"^Refrain" [CE][CE] | %9
w: for His child- ren call, And|for His child- ren|call.||
w: earth will burn with fire, The|earth will burn with|fire.|Trim your|
w: mount- ains, on us fall, O|mount- ains, on us|fall.”||
w: hold the Bride- groom comes, Be-|hold the Bride- groom|comes.”||
 [CA]2 [CA]>[CA] | [DF]<[CE] [EA]>[EB] | [Ec]2 [Ec]>[Ec] | [EB]<[EA] [Ec][Ed] | [Ae]2 [Ae]>[Ac] | %14
w: |||||
w: lamps and be|rea- dy, Trim your|lamps and be|rea- dy, Trim your|lamps and be|
w: |||||
w: |||||
 [Ae]<[Ac] A[AB] | [Ac]2 [EB]2 | [EA]3 z2 |] x4 | x5 |] %19
w: |||||
w: rea- dy, For the|mid- night|call.|||
w: |||||
w: |||||
V:2
 x | x4 | x4 | x4 | x4 | x7 A | x4 | x4 || x2 | x4 | x4 | x4 | x4 | x4 | x2 A x | x4 | x5 |] x4 | %18
 x5 |] %19
V:3
 [A,,A,] | [A,,E,]>[A,,E,] [A,,E,][A,,A,] | [A,,A,][A,,A,] [A,,A,]A, | A,>A, A,[A,C] | %4
 [E,E][E,E] [E,E][E,E] | [A,E][A,C] [A,C][A,E] x4 | [A,C]3 [A,C] | [E,E]>[E,D] [E,D][E,D] || %8
 [A,,C]2 | [A,,A,][A,,A,] x2 | [A,,E,]2 [A,,E,]>[A,,E,] | [A,,A,]<[A,,A,] [C,A,]>[E,G,] | %12
 A,2 A,>A, | [A,D]<[A,C] x2 | A,[A,B,] x2 | [A,C]2 [A,C]>[A,E] | [A,C]<[A,E] [C,E][D,F] x |] %17
 [E,E]2 [E,D]2 | [A,,C]3 z2 |] %19
V:4
 x | x4 | x3 A, | A,>A, A, x | x4 | x8 | x4 | x4 || x2 | x4 | x4 | x4 | A,2 A,>A, | x4 | A, x3 | %15
 x4 | x5 |] x4 | x5 |] %19

